X:0640
M:C|
L:1/8
Q:1/2=104
K:G
gGgG     fGfG|efge     dBAG|gGgG     fGfG|efge Te2d2 |
gBEg     fADf|eGce     dBAG|G/G/G GB dBec|BgAf  g2G2|]

